X: 31915
T: Peacock's Feathers, The
R: hornpipe
M: 4/4
K: Bminor
BA|:GEFD E2EF|GFGB A2GA|B2e2 edBA|GEB,C D2BA|
GEFD E2EF|GFGB A2GA|Beed edBA|1 G2E2 E2BA:|2 G2E2 E2Bc||
|:d2dB e2ed|edB^G A2Bc|d2Be edBA|GEB,C D2BA|
GEFD E2EF|GFGB A2GA|Beed edBA|1 G2E2 E2Bc:|[ 2G2E2 E4||

